picto/soap.svg

<svg class="color-immutable" width="24" height="24" viewBox="0 0 24 24" fill="none" xmlns="http://www.w3.org/2000/svg"><path d="M0 22.5V1.5C0 0.675 0.675 0 1.5 0H22.5C23.325 0 24 0.675 24 1.5V22.5C24 23.325 23.325 24 22.5 24H1.5C0.675 24 0 23.325 0 22.5Z" fill="#2D327D"/><path d="M13.93 4.787C14.4281 4.787 14.832 4.38316 14.832 3.885C14.832 3.38684 14.4281 2.983 13.93 2.983C13.4318 2.983 13.028 3.38684 13.028 3.885C13.028 4.38316 13.4318 4.787 13.93 4.787Z" fill="white"/><path d="M11.981 7.562C12.4791 7.562 12.883 7.15816 12.883 6.66C12.883 6.16183 12.4791 5.758 11.981 5.758C11.4828 5.758 11.079 6.16183 11.079 6.66C11.079 7.15816 11.4828 7.562 11.981 7.562Z" fill="white"/><path d="M14.684 10.712C15.1821 10.712 15.586 10.3082 15.586 9.80999C15.586 9.31183 15.1821 8.90799 14.684 8.90799C14.1858 8.90799 13.782 9.31183 13.782 9.80999C13.782 10.3082 14.1858 10.712 14.684 10.712Z" fill="white"/><path d="M5.5802 16.1014L4.03943 17.6422L7.38048 20.9833L8.92125 19.4425L5.5802 16.1014Z" fill="white"/><path d="M17.707 14.005L16.265 15.447V15.448C16.267 15.466 16.269 15.485 16.271 15.504C16.274 15.535 16.276 15.567 16.276 15.599C16.276 16.262 15.739 16.799 15.076 16.799H11.626V16.424H15.076C15.532 16.424 15.901 16.055 15.901 15.599C15.901 15.144 15.53 14.776 15.076 14.774H12.774C12.31 14.774 12.015 14.639 11.738 14.499C11.722 14.491 11.706 14.483 11.69 14.475L11.631 14.445C11.601 14.429 11.57 14.415 11.54 14.4C11.006 14.131 10.414 14.08 9.817 14.08C8.784 14.08 8.02 14.392 7.298 15.124L6.211 16.206L8.812 18.807L9.315 18.3L15.079 18.295C15.514 18.295 15.906 18.131 16.205 17.861L16.846 17.23L19.75 14.326L19.847 14.229C20.094 13.906 18.646 13.066 17.707 14.005Z" fill="white"/><path d="M9.81496 13.705C10.397 13.705 11.077 13.748 11.707 14.066C11.717 14.07 11.727 14.075 11.736 14.08C11.758 14.091 11.78 14.102 11.802 14.113L11.858 14.142L11.905 14.165C12.167 14.298 12.397 14.4 12.771 14.4H15.075C15.312 14.401 15.533 14.471 15.719 14.59C15.853 14.447 15.952 14.268 15.999 14.064C16.147 13.437 15.758 12.809 15.131 12.661C14.879 12.602 14.628 12.629 14.406 12.724C14.314 12.221 13.874 11.838 13.343 11.838C13.305 11.838 13.267 11.84 13.23 11.844C13.091 11.359 12.702 10.96 12.176 10.836C11.401 10.654 10.625 11.134 10.442 11.908C10.43 11.961 10.422 12.014 10.416 12.067C10.346 12.055 10.275 12.047 10.202 12.047C9.52796 12.047 8.98096 12.594 8.98096 13.268C8.98096 13.443 9.01796 13.608 9.08496 13.758C9.31596 13.723 9.55896 13.705 9.81496 13.705Z" fill="white"/></svg>

<svg class="color-immutable" width="24" height="24" viewBox="0 0 24 24" fill="none" xmlns="http://www.w3.org/2000/svg"><g clip-path="url(#a)"><path d="M0 22.5v-21C0 .675.675 0 1.5 0h21c.825 0 1.5.675 1.5 1.5v21c0 .825-.675 1.5-1.5 1.5h-21C.675 24 0 23.325 0 22.5Z" fill="#2D327D"/><path d="M13.93 4.787a.902.902 0 1 0 0-1.804.902.902 0 0 0 0 1.804ZM11.981 7.562a.902.902 0 1 0 0-1.804.902.902 0 0 0 0 1.804ZM14.684 10.712a.902.902 0 1 0 0-1.804.902.902 0 0 0 0 1.804ZM5.58 16.101l-1.54 1.541 3.34 3.341 1.541-1.54-3.34-3.342ZM17.707 14.005l-1.442 1.442v.001l.006.056a1.2 1.2 0 0 1-1.195 1.295h-3.45v-.375h3.45a.825.825 0 1 0 0-1.65h-2.302c-.464 0-.759-.135-1.036-.275l-.048-.024-.059-.03c-.03-.016-.061-.03-.091-.045-.534-.269-1.126-.32-1.723-.32-1.033 0-1.797.312-2.519 1.044l-1.087 1.082 2.601 2.601.503-.507 5.764-.005a1.67 1.67 0 0 0 1.126-.434l.641-.631 2.904-2.904.097-.097c.247-.323-1.201-1.163-2.14-.224Z" fill="#fff"/><path d="M9.815 13.705c.582 0 1.262.043 1.892.361a.26.26 0 0 1 .029.014l.066.033.056.029.047.023c.262.133.492.235.866.235h2.304c.237.001.458.071.644.19a1.167 1.167 0 0 0-1.313-1.866 1.081 1.081 0 0 0-1.176-.88 1.44 1.44 0 0 0-2.814.223 1.221 1.221 0 0 0-1.331 1.691c.231-.035.474-.053.73-.053Z" fill="#fff"/></g><defs><clipPath id="a"><path fill="#fff" d="M0 0h24v24H0z"/></clipPath></defs></svg>
